X:1
T:Rien n'égale mon désespoir
T:Air à boire en duo                                                                                                                      Desfontaines (1718)
%%score 1 2
L:1/8
M:4/4
K:Bb
V:1 bass nm="Baryton" snm="Bar."
V:2 bass nm="Basse" snm="B."
V:1
 z4 C,3 C, | (C, D,2) D, D,2 E,F, | (F, E,3- E,2) C,2 | _A,6 A,B, | G,4 C3 C | (C4 =B,4) | %6
w: Rien n'é-|ga _ le mon dé- ses-|poir _ , so-|leil, ô- te|moi la lu-|miè _|
 (=B, C3) G,3 G, | G,3 F, F,2 G,D, | (D, E,2) C, _A,3 A, | D,3 D, G,3 G, | C,4 C,2 C,C, | %11
w: re , je ne|veux ja- mais la re-|voir _ Des- tin, as-|tu quel- que pou-|voir, Viens met- tre|
 =B,,4 _B,,2 B,,B,, | (_A,,4 A,,4) | (_A,, G,,3- G,,2) B,2 | B,2 E,2 _A,4- | A,2 D,2 G,3 G, | %16
w: fin à ma car-|riè _|re _ _ Viens|met- tre fin|_ à ma car-|
 (G,4 F,4) |{F,} G,8 | E,4 E,3 G, | (G, F,3) F,3 _A, | (_A, G,3) G,3 B, | B,,8 | B,4 B,3 G, | %23
w: riè _|re|Noirs ha- bi-|tants _ du sé-|jour _ té- né-|breux,|Vous qu'en tous|
 D4 D2 D2 | (D2- D/C/B,/A,/ G,2- G,/^F,/G,/A,/ | ^F,4) F,2 D,2 | G,4 G,4 | z2 A,2 A,3 A, | %28
w: lieux la fu-|reur _ _ _ _ _ _ _ _ _|_ ac- com-|pa- gne,|Pour a- dou-|
 (A, B,3- B,2) =B,B, | C6 DE | D6 G,2 | E,2 C,2 F,3 F, | B,,6 B,2 | B,3 A, A,3 B, | %34
w: cir _ _ vo- tre|sort ri- gou-|reux, Voy-|ez, vo- yez le|mien, il|est plus mal- heu-|
 B,3 _A, (G,F,)(E,D,) | C,3 C, C,2 F,2 | D,4 B,3 B, | B,4 _A,3 G, | (_A,4 G,4) | F,6 F,2 | %40
w: reux, on m'a _ vo _|lé, on m'a vo-|lé Tout mon|vin de Cham-|pa _|gne, on|
 D,2 B,,2 E,2 C,2 | _A,6 =A,2 | D3 D =B,4 | G,3 G, A,2 =B,C | (C4 =B,4) | CC, F,4- F,F, | %46
w: m'a vo- lé, vo-|lé, on|m'a vo- lé|Tout mon vin de Cham-|pa _|gne. On m'a _ vo-|
 D,3 D, G,4 | E,3 E, E,2 D,C, | (G,F,/E,/ D,/C,/B,,/_A,,/ G,,3) (G,, | C,8) |] %50
w: lé, vo- lé|Tout mon vin de Cham-|pa _ _ _ _ _ _ _ gne|_|
V:2
 z8 | z8 | z8 | z8 | z4 C,3 C, | (C, D,2) D, D,2 E,F, | F, E,3- E,2 C,2 | _A,6 =A,B, | G,4 C3 C | %9
w: ||||Rien n'é-|ga _ le mon dé- ses-|poir _ , so-|leil, ô- te|moi ta lu-|
 (C4 =B,4) | (=B, C3) G,3 G, | G,3 F, F,2 G,D, | (D, E,2) C, _A,3 A, | D,3 D, G,3 G, | %14
w: miè _|re _ je ne|veux ja- mais la re-|voir _ Des- tin, as-|tu quel- que pou-|
 C,4 C,2 C,C, | =B,,4 _B,,2 B,,B,, | _A,,4- A,,4 |{_A,,} G,,8 | z8 | z8 | E,4 E,3 G, | %21
w: voir, Viens met- tre|fin à ma car-|riè _|re|||Noirs ha- bi-|
 (G, F,3) F,3 _A, | (_A, G,3) G,3 B, | B,,8 | B,4 B,3 G, | D4 D2 D2 | %26
w: tants _ du sé-|jour _ té- né-|breux,|Vous qu'en tous|lieux la fu-|
 ((D2 D/)C/B,/A,/ (G,2 G,/)^F,/G,/A,/ | ^F,4) F,2 D,2 | G,4 G,4 | z2 A,2 A,3 A, | %30
w: reur _ _ _ _ _ _ _ _ _|_ ac- com-|pa- gne,|Pour a- dou-|
 (A, B,3- B,2) =B,B, | C6 DE | D6 G,2 | E,2 C,2 F,3 F, | B,,6 B,2 | B,3 A, A,3 B, | %36
w: cir _ _ vo- tre|sort ri- gou-|reux, Voy-|ez, vo- yez le|mien, il|est plus mal- heu-|
 B,3 _A, (G,F,)(E,D,) | C,3 C, C,2 F,2 | D,4 B,3 B, | B,4 _A,3 G, | (_A,4 G,4) | E,6 F,2 | %42
w: reux, on m'a _ vo _|lé, on m'a vo-|lé Tout mon|vin de Cham-|pa _|gne, on|
 D,3 D, G,4 | E,3 E, E,2 D,C, | (G,F,/E,/ D,/C,/B,,/_A,,/ G,,3) (G,, | C,4) z2 A,2 | D3 D =B,4 | %47
w: m'a vo- lé|Tout mon vin de Cham-|pa _ _ _ _ _ _ _ gne|_ On|m'a vo- lé|
 G,3 G, A,2 =B,C | (C4 =B,4) | C8 |] %50
w: Tout mon vin de Cham-|pa _|gne!|

